X:9146
T:Lady Forbe's Reel
M:4/4
L:1/8
K:D
DFAd BAGF|Eeed cA A2|DFAd BAGF|GBAG FD D2|!
DFAd BAGF|Eeed cA A2|DFAd BAGF|GBAG FD D2:|!
|:dAdA dfed|cAeA fAeA|dAdA dfed|cdef d3 d|!
dAdA dfed|cdef gfed|cBAG FAdA|BGEC D4:|!


